images_sukapura_svg/cmd/lc_zoomprevious.svg

<svg viewBox="0 0 24 24" xmlns="http://www.w3.org/2000/svg" xmlns:xlink="http://www.w3.org/1999/xlink"><linearGradient id="a" gradientTransform="matrix(-1 0 0 1 23.998992 0)" gradientUnits="userSpaceOnUse" x1="23" x2="23" y1="13" y2="1"><stop offset="0" stop-color="#0040dd"/><stop offset="1" stop-color="#0a84ff"/></linearGradient><path d="m9.5 2a7.5 7.5 0 0 0 -7.5 7.5 7.5 7.5 0 0 0 7.5 7.5 7.5 7.5 0 0 0 4.523438-1.529297l6.236328 6.236328c.942508.981667 2.395729-.471553 1.414062-1.414062l-6.228516-6.228516a7.5 7.5 0 0 0 1.554688-4.564453 7.5 7.5 0 0 0 -7.5-7.5zm0 2a5.5 5.5 0 0 1 5.5 5.5 5.5 5.5 0 0 1 -5.5 5.5 5.5 5.5 0 0 1 -5.5-5.5 5.5 5.5 0 0 1 5.5-5.5z" fill="#69696e"/><path d="m6.8652344 2.4882812c-.0628.021954-.125306.044742-.1875.068359-.070766.028871-.1410869.058823-.2109375.089844-.179018.077742-.3549331.1624416-.5273438.2539062-.025474.014175-.050865.028498-.076172.042969-2.3832957 1.3213894-3.8623186 3.831541-3.8632811 6.5566406.00196.4501693.044452.899248.1269531 1.341797l1.6914063 1.636719c.3883938.376566.9003267.518415 1.390625.498046-.8022463-.981124-1.2410427-2.209202-1.2421875-3.476562 0-3.0375661 2.4624339-5.5 5.5-5.5.00456-.0000057.00911-.0000057.013672 0 .00651-.0000116.013021-.0000116.019531 0 1.2005241.00236 2.3673041.3974622 3.3222661 1.125.01128.00974.02479.016642.03516.027344.323519.249054.618304.5333577.878902.847656l.263672.3203125v-1.0820312l-.089844-.2382813c-.212055-.5791754-.769315-1.0078125-1.412109-1.0078125h-5.4921876v-.9921875c-.0003546-.1800679-.0489105-.3567575-.140625-.5117188z" fill="#fff" fill-opacity=".784314"/><path d="m5.143523 2.0078125c.528794.0055.929082.4797447.845703 1.0019531l.009766-.0097656v2h6.5c.277 0 .5.223.5.5v1.5078125 1.4921875c0 .277-.223.5-.5.5h-6.5v2l-.02344-.02148c.149292.828136-.850931 1.36114-1.455078.77539l-4.259765-4.1269529c-.347612-.3395737-.347612-.8987075 0-1.2382812l4.259765-4.125c.164621-.1659135.38934-.2581961.623049-.2558634z" fill="url(#a)"/></svg>

<?xml version="1.0" encoding="UTF-8" standalone="no"?>
<svg
   xmlns:dc="http://purl.org/dc/elements/1.1/"
   xmlns:cc="http://creativecommons.org/ns#"
   xmlns:rdf="http://www.w3.org/1999/02/22-rdf-syntax-ns#"
   xmlns:svg="http://www.w3.org/2000/svg"
   xmlns="http://www.w3.org/2000/svg"
   xmlns:xlink="http://www.w3.org/1999/xlink"
   xmlns:sodipodi="http://sodipodi.sourceforge.net/DTD/sodipodi-0.dtd"
   xmlns:inkscape="http://www.inkscape.org/namespaces/inkscape"
   viewBox="0 0 24 24"
   version="1.1"
   id="svg8"
   sodipodi:docname="lc_zoomprevious.svg"
   inkscape:version="0.92.3 (unknown)"
   inkscape:export-filename="/home/rizmut/Dokumen/Rizmut/Github/libreoffice-style-sukapura/images_sukapura/cmd/lc_zoomprevious.png"
   inkscape:export-xdpi="96"
   inkscape:export-ydpi="96">
  <metadata
     id="metadata14">
    <rdf:RDF>
      <cc:Work
         rdf:about="">
        <dc:format>image/svg+xml</dc:format>
        <dc:type
           rdf:resource="http://purl.org/dc/dcmitype/StillImage" />
        <dc:title />
      </cc:Work>
    </rdf:RDF>
  </metadata>
  <defs
     id="defs12">
    <linearGradient
       gradientTransform="translate(75,-7)"
       id="a"
       gradientUnits="userSpaceOnUse"
       x1="14"
       x2="13.79661"
       y1="22"
       y2="2.1355929">
      <stop
         offset="0"
         stop-color="#0040dd"
         id="stop2206" />
      <stop
         offset="1"
         stop-color="#0a84ff"
         id="stop2208" />
    </linearGradient>
    <linearGradient
       inkscape:collect="always"
       xlink:href="#a"
       id="linearGradient1525"
       x1="23"
       y1="13"
       x2="23"
       y2="1"
       gradientUnits="userSpaceOnUse"
       gradientTransform="matrix(-1,0,0,1,23.998992,0)" />
  </defs>
  <sodipodi:namedview
     pagecolor="#ffffff"
     bordercolor="#666666"
     borderopacity="1"
     objecttolerance="10"
     gridtolerance="10"
     guidetolerance="10"
     inkscape:pageopacity="0"
     inkscape:pageshadow="2"
     inkscape:window-width="1366"
     inkscape:window-height="706"
     id="namedview10"
     showgrid="true"
     inkscape:snap-global="true"
     inkscape:zoom="90.509668"
     inkscape:cx="13.852307"
     inkscape:cy="19.23435"
     inkscape:window-x="0"
     inkscape:window-y="0"
     inkscape:window-maximized="1"
     inkscape:current-layer="svg8">
    <inkscape:grid
       type="xygrid"
       id="grid821"
       spacingx="0.5"
       spacingy="0.5"
       empspacing="2" />
  </sodipodi:namedview>
  <path
     style="fill:#69696e;fill-opacity:1"
     d="M 9.5 2 A 7.5 7.5 0 0 0 2 9.5 A 7.5 7.5 0 0 0 9.5 17 A 7.5 7.5 0 0 0 14.023438 15.470703 L 20.259766 21.707031 C 21.202274 22.688698 22.655495 21.235478 21.673828 20.292969 L 15.445312 14.064453 A 7.5 7.5 0 0 0 17 9.5 A 7.5 7.5 0 0 0 9.5 2 z M 9.5 4 A 5.5 5.5 0 0 1 15 9.5 A 5.5 5.5 0 0 1 9.5 15 A 5.5 5.5 0 0 1 4 9.5 A 5.5 5.5 0 0 1 9.5 4 z "
     id="path2" />
  <path
     style="fill:#ffffff;fill-opacity:0.78431373"
     d="m 6.8652344,2.4882812 c -0.0628,0.021954 -0.125306,0.044742 -0.1875,0.068359 -0.070766,0.028871 -0.1410869,0.058823 -0.2109375,0.089844 -0.179018,0.077742 -0.3549331,0.1624416 -0.5273438,0.2539062 -0.025474,0.014175 -0.050865,0.028498 -0.076172,0.042969 C 3.4799854,4.2647488 2.0009625,6.7749004 2,9.5 c 0.00196,0.4501693 0.044452,0.899248 0.1269531,1.341797 l 1.6914063,1.636719 c 0.3883938,0.376566 0.9003267,0.518415 1.390625,0.498046 C 4.4067381,11.995438 3.9679417,10.76736 3.9667969,9.5 c 0,-3.0375661 2.4624339,-5.5 5.5,-5.5 0.00456,-5.7e-6 0.00911,-5.7e-6 0.013672,0 0.00651,-1.16e-5 0.013021,-1.16e-5 0.019531,0 1.2005241,0.00236 2.3673041,0.3974622 3.3222661,1.125 0.01128,0.00974 0.02479,0.016642 0.03516,0.027344 C 13.180945,5.401398 13.47573,5.6857017 13.736328,6 L 14,6.3203125 V 5.2382813 L 13.910156,5 C 13.698101,4.4208246 13.140841,3.9921875 12.498047,3.9921875 H 7.0058594 V 3 C 7.0055048,2.8199321 6.9569489,2.6432425 6.8652344,2.4882812 Z"
     id="path1573"
     inkscape:connector-curvature="0"
     sodipodi:nodetypes="cccccccccccccccccccsccc" />
  <path
     d="m 5.143523,2.0078125 c 0.528794,0.0055 0.929082,0.4797447 0.845703,1.0019531 L 5.998992,3 v 2 h 6.5 c 0.277,0 0.5,0.223 0.5,0.5 V 7.0078125 8.5 c 0,0.277 -0.223,0.5 -0.5,0.5 h -6.5 v 2 l -0.02344,-0.02148 c 0.149292,0.828136 -0.850931,1.36114 -1.455078,0.77539 L 0.260709,7.6269571 c -0.347612,-0.3395737 -0.347612,-0.8987075 0,-1.2382812 l 4.259765,-4.125 C 4.685095,2.0977624 4.909814,2.0054798 5.143523,2.0078125 Z"
     id="path6"
     style="fill:url(#linearGradient1525);fill-opacity:1"
     inkscape:connector-curvature="0"
     sodipodi:nodetypes="ccccsscsscccccccc" />
</svg>
